COLOR/mimes 16/16/image-x-xcf.svg

<?xml version="1.0" encoding="UTF-8" standalone="no"?>
<svg
   xmlns:dc="http://purl.org/dc/elements/1.1/"
   xmlns:cc="http://creativecommons.org/ns#"
   xmlns:rdf="http://www.w3.org/1999/02/22-rdf-syntax-ns#"
   xmlns:svg="http://www.w3.org/2000/svg"
   xmlns="http://www.w3.org/2000/svg"
   xmlns:xlink="http://www.w3.org/1999/xlink"
   xmlns:sodipodi="http://sodipodi.sourceforge.net/DTD/sodipodi-0.dtd"
   xmlns:inkscape="http://www.inkscape.org/namespaces/inkscape"
   width="16"
   height="16"
   version="1.1"
   viewBox="0 0 4.233125 4.233125"
   id="svg64"
   sodipodi:docname="image-x-xcf.svg"
   inkscape:version="0.92.4 (5da689c313, 2019-01-14)">
  <metadata
     id="metadata68">
    <rdf:RDF>
      <cc:Work
         rdf:about="">
        <dc:format>image/svg+xml</dc:format>
        <dc:type
           rdf:resource="http://purl.org/dc/dcmitype/StillImage" />
        <dc:title></dc:title>
      </cc:Work>
    </rdf:RDF>
  </metadata>
  <sodipodi:namedview
     pagecolor="#ffffff"
     bordercolor="#666666"
     borderopacity="1"
     objecttolerance="10"
     gridtolerance="10"
     guidetolerance="10"
     inkscape:pageopacity="0"
     inkscape:pageshadow="2"
     inkscape:window-width="793"
     inkscape:window-height="480"
     id="namedview66"
     showgrid="false"
     inkscape:zoom="0.921875"
     inkscape:cx="128"
     inkscape:cy="128"
     inkscape:window-x="0"
     inkscape:window-y="27"
     inkscape:window-maximized="0"
     inkscape:current-layer="svg64" />
  <defs
     id="defs22">
    <linearGradient
       id="linearGradient4226"
       x1="529.65503"
       x2="-35.310001"
       y1="401.58401"
       y2="119.093"
       gradientTransform="matrix(0,-0.11988932,0.11988589,0,0.36277965,292.5483)"
       gradientUnits="userSpaceOnUse">
      <stop
         style="stop-color:#f2f2f2"
         offset="0"
         id="stop2" />
      <stop
         style="stop-color:#f9f9f9"
         offset="1"
         id="stop4" />
    </linearGradient>
    <linearGradient
       id="linearGradient4358"
       x1="88"
       x2="488"
       y1="88"
       y2="488"
       gradientUnits="userSpaceOnUse">
      <stop
         style="stop-color:#000000;stop-opacity:.58823532"
         offset="0"
         id="stop7" />
      <stop
         style="stop-color:#000000;stop-opacity:0"
         offset=".88"
         id="stop9" />
      <stop
         style="stop-color:#000000"
         offset="1"
         id="stop11" />
    </linearGradient>
    <filter
       id="filter4346"
       width="1.026"
       height="1.022"
       x="-0.0099999998"
       y="-0.0099999998"
       style="color-interpolation-filters:sRGB">
      <feGaussianBlur
         stdDeviation="2.12"
         id="feGaussianBlur14" />
    </filter>
    <linearGradient
       id="linearGradient4351"
       x1="32.349998"
       x2="21.212999"
       y1="28.083"
       y2="30.292999"
       gradientTransform="matrix(1.3344393,0,0,1.3344393,-3.3690755,227.10065)"
       gradientUnits="userSpaceOnUse">
      <stop
         offset="0"
         id="stop17" />
      <stop
         style="stop-opacity:0"
         offset="1"
         id="stop19" />
    </linearGradient>
    <linearGradient
       inkscape:collect="always"
       xlink:href="#linearGradient927"
       id="linearGradient993"
       x1="328"
       y1="237"
       x2="328"
       y2="251"
       gradientUnits="userSpaceOnUse" />
    <linearGradient
       inkscape:collect="always"
       id="linearGradient927">
      <stop
         style="stop-color:#ffffff;stop-opacity:1;"
         offset="0"
         id="stop923" />
      <stop
         id="stop933"
         offset="0.125"
         style="stop-color:#ffffff;stop-opacity:0.09803922" />
      <stop
         id="stop931"
         offset="0.92500001"
         style="stop-color:#ffffff;stop-opacity:0.09803922" />
      <stop
         style="stop-color:#ffffff;stop-opacity:0.49803922"
         offset="1"
         id="stop925" />
    </linearGradient>
    <clipPath
       clipPathUnits="userSpaceOnUse"
       id="clipPath983">
      <path
         sodipodi:nodetypes="scccssscsss"
         inkscape:connector-curvature="0"
         id="path985"
         d="m 325.09646,237 c -2.80769,0 -3.10979,0.28839 -3.09603,3.10176 V 244 v 3.89824 c -0.0138,2.81337 0.28834,3.10176 3.09603,3.10176 h 5.8075 C 333.71166,251 334,250.71165 334,247.89824 V 244 240.10176 C 334,237.28836 333.71165,237 330.90396,237 Z"
         style="color:#000000;display:inline;overflow:visible;visibility:visible;opacity:1;fill:#46a926;fill-opacity:1;fill-rule:nonzero;stroke:none;stroke-width:2;stroke-miterlimit:4;stroke-dasharray:none;stroke-opacity:1;marker:none;enable-background:accumulate" />
    </clipPath>
    <linearGradient
       inkscape:collect="always"
       xlink:href="#linearGradient4338"
       id="linearGradient920"
       gradientUnits="userSpaceOnUse"
       gradientTransform="matrix(0,-0.00953618,0.00953591,0,-0.94298444,4.473639)"
       x1="459.03448"
       y1="419.23337"
       x2="35.310345"
       y2="207.36522" />
    <linearGradient
       inkscape:collect="always"
       id="linearGradient4338">
      <stop
         style="stop-color:#f2f2f2;stop-opacity:1"
         offset="0"
         id="stop4340" />
      <stop
         style="stop-color:#f9f9f9;stop-opacity:1"
         offset="1"
         id="stop4342" />
    </linearGradient>
  </defs>
  <path
     style="color:#000000;font-style:normal;font-variant:normal;font-weight:normal;font-stretch:normal;font-size:medium;line-height:normal;font-family:sans-serif;font-variant-ligatures:normal;font-variant-position:normal;font-variant-caps:normal;font-variant-numeric:normal;font-variant-alternates:normal;font-feature-settings:normal;text-indent:0;text-align:start;text-decoration:none;text-decoration-line:none;text-decoration-style:solid;text-decoration-color:#000000;letter-spacing:normal;word-spacing:normal;text-transform:none;writing-mode:lr-tb;direction:ltr;text-orientation:mixed;dominant-baseline:auto;baseline-shift:baseline;text-anchor:start;white-space:normal;shape-padding:0;clip-rule:nonzero;display:inline;overflow:visible;visibility:visible;opacity:0.1;isolation:auto;mix-blend-mode:normal;color-interpolation:sRGB;color-interpolation-filters:linearRGB;solid-color:#000000;solid-opacity:1;vector-effect:none;fill:#000000;fill-opacity:1;fill-rule:nonzero;stroke:none;stroke-width:0.52914065;stroke-linecap:butt;stroke-linejoin:miter;stroke-miterlimit:4;stroke-dasharray:none;stroke-dashoffset:0;stroke-opacity:1;marker:none;color-rendering:auto;image-rendering:auto;shape-rendering:auto;text-rendering:auto;enable-background:accumulate"
     d="m 1.3483196,0.264567 c -0.190237,0 -0.344431,0.0037 -0.48573304,0.02739 -0.141304,0.02373 -0.28264,0.0731 -0.390656,0.180857 -0.108014,0.10776 -0.157835,0.249551 -0.181374,0.39117 -0.02355,0.141622 -0.02677,0.296446 -0.02585,0.487286 v 0.765291 1.031411 c -7.93e-4,0.190004 0.0024,0.344563 0.02585,0.485735 0.02355,0.14162 0.07336,0.283411 0.181374,0.39117 0.108016,0.107762 0.249352,0.157139 0.390656,0.180858 0.14130204,0.02373 0.29549604,0.02739 0.48573304,0.02739 h 1.536783 c 0.190236,0 0.344095,-0.0036 0.485216,-0.02739 0.141125,-0.02376 0.282477,-0.07353 0.390139,-0.181374 0.107661,-0.107844 0.157165,-0.249413 0.180857,-0.390654 0.0237,-0.141243 0.02739,-0.29513 0.02739,-0.485735 V 2.116561 1.34972 c 0,-0.190605 -0.0037,-0.344492 -0.02739,-0.485736 C 3.9176346,0.722743 3.8681146,0.581175 3.7604576,0.47333 3.6527956,0.365486 3.5114436,0.315705 3.3703186,0.291957 3.2291976,0.268207 3.0753386,0.264567 2.8851026,0.264567 Z"
     id="path997"
     inkscape:connector-curvature="0"
     sodipodi:nodetypes="scscccccccsscscscscscss" />
  <path
     sodipodi:nodetypes="scccssscsss"
     inkscape:connector-curvature="0"
     id="path928"
     d="m 1.3485206,0.264567 c -0.74283204,0 -0.82275804,0.0763 -0.81911804,0.820633 v 1.031359 1.031358 c -0.0037,0.744335 0.07629,0.820634 0.81911804,0.820634 h 1.536492 c 0.742834,0 0.81912,-0.07629 0.81912,-0.820634 V 2.116559 1.0852 c 0,-0.744342 -0.07629,-0.820633 -0.81912,-0.820633 z"
     style="color:#000000;display:inline;overflow:visible;visibility:visible;opacity:0.2;fill:none;fill-opacity:1;fill-rule:nonzero;stroke:#000000;stroke-width:0.52914065;stroke-miterlimit:4;stroke-dasharray:none;stroke-opacity:1;marker:none;enable-background:accumulate" />
  <path
     style="color:#000000;display:inline;overflow:visible;visibility:visible;fill:url(#linearGradient920);fill-opacity:1;fill-rule:nonzero;stroke:none;stroke-width:0.26457033;marker:none;enable-background:accumulate"
     d="m 1.3485206,0.264567 c -0.74283204,0 -0.82275804,0.0763 -0.81911804,0.820633 v 1.031359 1.031358 c -0.0037,0.744335 0.07629,0.820634 0.81911804,0.820634 h 1.536492 c 0.742834,0 0.81912,-0.07629 0.81912,-0.820634 V 2.116559 1.0852 c 0,-0.744342 -0.07629,-0.820633 -0.81912,-0.820633 z"
     id="path918"
     inkscape:connector-curvature="0"
     sodipodi:nodetypes="scccssscsss" />
  <g
     style="display:inline;enable-background:new"
     transform="matrix(0.05038206,0,0,0.05038206,0.43687156,-10.934647)"
     id="g1164-6-2-3">
    <path
       sodipodi:nodetypes="ccccccc"
       inkscape:connector-curvature="0"
       id="path4323-0-3-6"
       style="color:#000000;display:inline;overflow:visible;visibility:visible;fill:#60594c;fill-opacity:1;fill-rule:evenodd;stroke:none;stroke-width:1.49680126;stroke-linecap:butt;stroke-linejoin:miter;stroke-miterlimit:10;stroke-dasharray:none;stroke-dashoffset:0;stroke-opacity:1;marker:none;marker-start:none;marker-mid:none;marker-end:none"
       d="m 12.380846,240.52258 c 0,0 4.199679,9.08985 14.024561,8.83344 20.589272,-0.5419 24.199706,-11.81532 24.716248,-13.44185 0.51652,-1.62648 1.306923,-1.3801 1.489653,0.1229 6.715072,63.97564 -46.6016511,36.52631 -48.4951718,25.62997 10.5891558,-3.25302 8.1686758,-6.97326 8.1686758,-6.97326 z" />
    <path
       inkscape:connector-curvature="0"
       transform="matrix(0.26458333,0,0,0.26458333,0,229.26666)"
       id="path992-6-7-1"
       d="M 113.9668,74.640625 A 26.371084,28.367858 0 0 0 91.177734,88.789062 23.415044,24.229482 0 0 0 70.318359,75.566406 23.415044,24.229482 0 0 0 46.902344,99.794922 23.415044,24.229482 0 0 0 70.318359,124.02539 23.415044,24.229482 0 0 0 89.529297,113.63086 26.371084,28.367858 0 0 0 113.9668,131.37695 26.371084,28.367858 0 0 0 140.33789,103.00977 26.371084,28.367858 0 0 0 113.9668,74.640625 Z"
       style="opacity:1;fill:#ffffff;fill-opacity:1;stroke:none;stroke-width:2.64055514;stroke-linecap:round;stroke-linejoin:round;stroke-miterlimit:4;stroke-dasharray:none;stroke-opacity:1" />
    <ellipse
       transform="rotate(-24.043433)"
       ry="8.7269564"
       rx="7.0456152"
       cy="242.37206"
       cx="-97.563156"
       id="path990-3-2-5-2"
       style="opacity:1;fill:#000000;fill-opacity:1;stroke:#ffffff;stroke-width:1.34596622;stroke-linecap:round;stroke-linejoin:round;stroke-miterlimit:4;stroke-dasharray:none;stroke-opacity:1" />
    <ellipse
       ry="2.2033732"
       rx="2.0911648"
       cy="256.15598"
       cx="19.718147"
       id="path997-6-6-9-9"
       style="opacity:1;fill:#474747;fill-opacity:1;stroke:none;stroke-width:0.49427614;stroke-linecap:round;stroke-linejoin:round;stroke-miterlimit:4;stroke-dasharray:none;stroke-opacity:1" />
    <ellipse
       style="opacity:1;fill:#474747;fill-opacity:1;stroke:none;stroke-width:0.54120773;stroke-linecap:round;stroke-linejoin:round;stroke-miterlimit:4;stroke-dasharray:none;stroke-opacity:1"
       id="ellipse999-1-2-3"
       cx="31.755095"
       cy="256.97205"
       rx="2.4175906"
       ry="2.2849796" />
    <path
       inkscape:connector-curvature="0"
       id="path6480-8-2-1"
       style="color:#000000;display:inline;overflow:visible;visibility:visible;fill:#ffffff;fill-opacity:1;fill-rule:evenodd;stroke:none;stroke-width:1.33443892;stroke-linecap:butt;stroke-linejoin:miter;stroke-miterlimit:10;stroke-dasharray:none;stroke-dashoffset:0;stroke-opacity:1;marker:none;marker-start:none;marker-mid:none;marker-end:none"
       d="m 22.751694,266.76028 c 8.992654,1.79863 13.572173,0.13113 16.252371,-1.93864 -0.707696,-0.91409 -1.916671,-1.91665 -1.916671,-1.91665 0,0 3.140362,0.87264 4.24616,2.30001 1.102637,1.42324 0.409436,2.30016 0.120844,4.12124 -0.642413,-1.59946 -1.841501,-2.1993 -2.003838,-2.83478 -2.410358,3.33197 -8.415566,3.19357 -16.698866,0.26882 z" />
    <g
       id="g8463-7-8-9"
       transform="matrix(-0.15326305,-0.52024985,0.52024985,-0.15326305,34.731331,266.25769)">
      <path
         inkscape:connector-curvature="0"
         id="path6937-92-9-4"
         style="color:#000000;display:inline;overflow:visible;visibility:visible;opacity:1;fill:#d17716;fill-opacity:1;fill-rule:nonzero;stroke:#ffffff;stroke-width:0;stroke-linecap:round;stroke-linejoin:miter;stroke-miterlimit:4;stroke-dasharray:none;stroke-dashoffset:0;stroke-opacity:1;marker:none;marker-start:none;marker-mid:none;marker-end:none"
         d="m -30.350079,30.578625 4.621089,4.434412 C -15.176089,26.689604 -4.0398253,8.8960037 -4.0398253,8.8960037 -1.5331507,5.9814609 -4.1453181,4.0590927 -6.7321931,5.8265026 c 0,0 -16.4003359,13.1913574 -23.6178859,24.7521224 z" />
      <path
         inkscape:connector-curvature="0"
         id="path6933-0-7-7"
         style="color:#000000;display:inline;overflow:visible;visibility:visible;opacity:1;fill:#4b4b4b;fill-opacity:1;fill-rule:nonzero;stroke:none;stroke-width:0.2;stroke-linecap:round;stroke-linejoin:miter;stroke-miterlimit:4;stroke-dasharray:none;stroke-dashoffset:0;stroke-opacity:1;marker:none;marker-start:none;marker-mid:none;marker-end:none"
         d="m -45.341208,42.769835 c 10.443958,0 18.370039,1.24373 19.870605,-6.354738 1.209249,-6.123314 -7.210534,-9.057368 -11.38287,-3.590861 -4.019277,5.265971 -8.487735,9.945599 -8.487735,9.945599 z" />
    </g>
  </g>
  <path
     style="color:#000000;display:inline;overflow:visible;visibility:visible;opacity:0.2;fill:#ffffff;fill-opacity:1;fill-rule:nonzero;stroke:none;stroke-width:0.26457033;marker:none;enable-background:accumulate"
     d="m 2.1167106,0.264567 v 3.703984 h 0.768392 c 0.742834,0 0.81903,-0.07624 0.81903,-0.820581 V 2.116559 1.085147 c 0,-0.744342 -0.0762,-0.82058 -0.81903,-0.82058 z"
     id="path1009"
     inkscape:connector-curvature="0" />
  <path
     style="color:#000000;display:inline;overflow:visible;visibility:visible;opacity:0.2;fill:#ffffff;fill-opacity:1;fill-rule:nonzero;stroke:none;stroke-width:0.26457033;marker:none;enable-background:accumulate"
     d="M 0.52928856,2.116559 V 3.14797 c -0.0037,0.744334 0.0762,0.820581 0.81903104,0.820581 h 1.536783 c 0.742834,0 0.81903,-0.07624 0.81903,-0.820581 V 2.116559 Z"
     id="path1016"
     inkscape:connector-curvature="0" />
  <path
     transform="matrix(0.26457031,0,0,0.26457031,-84.662351,-62.438598)"
     style="color:#000000;display:inline;overflow:visible;visibility:visible;opacity:0.4;fill:none;fill-opacity:1;fill-rule:nonzero;stroke:url(#linearGradient993);stroke-width:2;stroke-miterlimit:4;stroke-dasharray:none;stroke-opacity:1;marker:none;enable-background:accumulate"
     d="m 325.09646,237 c -2.80769,0 -3.10979,0.28839 -3.09603,3.10176 V 244 v 3.89824 c -0.0138,2.81337 0.28834,3.10176 3.09603,3.10176 h 5.8075 C 333.71166,251 334,250.71165 334,247.89824 V 244 240.10176 C 334,237.28836 333.71165,237 330.90396,237 Z"
     id="path937"
     inkscape:connector-curvature="0"
     sodipodi:nodetypes="scccssscsss"
     clip-path="url(#clipPath983)" />
</svg>

<svg height="16" viewBox="0 0 4.233125 4.233125" width="16" xmlns="http://www.w3.org/2000/svg" xmlns:xlink="http://www.w3.org/1999/xlink"><linearGradient id="a" gradientUnits="userSpaceOnUse" x1="328" x2="328" y1="237" y2="251"><stop offset="0" stop-color="#fff"/><stop offset=".125" stop-color="#fff" stop-opacity=".098039"/><stop offset=".92500001" stop-color="#fff" stop-opacity=".098039"/><stop offset="1" stop-color="#fff" stop-opacity=".498039"/></linearGradient><clipPath id="b"><path d="m325.09646 237c-2.80769 0-3.10979.28839-3.09603 3.10176v3.89824 3.89824c-.0138 2.81337.28834 3.10176 3.09603 3.10176h5.8075c2.8077 0 3.09604-.28835 3.09604-3.10176v-3.89824-3.89824c0-2.8134-.28835-3.10176-3.09604-3.10176z"/></clipPath><linearGradient id="c" gradientTransform="matrix(0 -.00953618 .00953591 0 -.942984 4.473639)" gradientUnits="userSpaceOnUse" x1="459.03448" x2="35.310345" y1="419.23337" y2="207.36522"><stop offset="0" stop-color="#f2f2f2"/><stop offset="1" stop-color="#f9f9f9"/></linearGradient><path d="m1.3483196.264567c-.190237 0-.344431.0037-.48573304.02739-.141304.02373-.28264.0731-.390656.180857-.108014.10776-.157835.249551-.181374.39117-.02355.141622-.02677.296446-.02585.487286v.765291 1.031411c-.000793.190004.0024.344563.02585.485735.02355.14162.07336.283411.181374.39117.108016.107762.249352.157139.390656.180858.14130204.02373.29549604.02739.48573304.02739h1.536783c.190236 0 .344095-.0036.485216-.02739.141125-.02376.282477-.07353.390139-.181374.107661-.107844.157165-.249413.180857-.390654.0237-.141243.02739-.29513.02739-.485735v-1.031411-.766841c0-.190605-.0037-.344492-.02739-.485736-.02368-.141241-.0732-.282809-.180857-.390654-.107662-.107844-.249014-.157625-.390139-.181373-.141121-.02375-.29498-.02739-.485216-.02739z" opacity=".1"/><path d="m1.3485206.264567c-.74283204 0-.82275804.0763-.81911804.820633v1.031359 1.031358c-.0037.744335.07629.820634.81911804.820634h1.536492c.742834 0 .81912-.07629.81912-.820634v-1.031358-1.031359c0-.744342-.07629-.820633-.81912-.820633z" fill="none" opacity=".2" stroke="#000" stroke-width=".529141"/><path d="m1.3485206.264567c-.74283204 0-.82275804.0763-.81911804.820633v1.031359 1.031358c-.0037.744335.07629.820634.81911804.820634h1.536492c.742834 0 .81912-.07629.81912-.820634v-1.031358-1.031359c0-.744342-.07629-.820633-.81912-.820633z" fill="url(#c)"/><g enable-background="new" transform="matrix(.05038206 0 0 .05038206 .436872 -10.934647)"><path d="m12.380846 240.52258s4.199679 9.08985 14.024561 8.83344c20.589272-.5419 24.199706-11.81532 24.716248-13.44185.51652-1.62648 1.306923-1.3801 1.489653.1229 6.715072 63.97564-46.6016511 36.52631-48.4951718 25.62997 10.5891558-3.25302 8.1686758-6.97326 8.1686758-6.97326z" fill="#60594c" fill-rule="evenodd"/><path d="m113.9668 74.640625a26.371084 28.367858 0 0 0 -22.789066 14.148437 23.415044 24.229482 0 0 0 -20.859375-13.222656 23.415044 24.229482 0 0 0 -23.416015 24.228516 23.415044 24.229482 0 0 0 23.416015 24.230468 23.415044 24.229482 0 0 0 19.210938-10.39453 26.371084 28.367858 0 0 0 24.437503 17.74609 26.371084 28.367858 0 0 0 26.37109-28.36718 26.371084 28.367858 0 0 0 -26.37109-28.369145z" fill="#fff" transform="matrix(.26458333 0 0 .26458333 0 229.26666)"/><ellipse cx="-97.563156" cy="242.37206" rx="7.045615" ry="8.726956" stroke="#fff" stroke-linecap="round" stroke-linejoin="round" stroke-width="1.345966" transform="matrix(.91323687 -.40742904 .40742904 .91323687 0 0)"/><ellipse cx="19.718147" cy="256.15598" fill="#474747" rx="2.091165" ry="2.203373"/><ellipse cx="31.755095" cy="256.97205" fill="#474747" rx="2.417591" ry="2.28498"/><path d="m22.751694 266.76028c8.992654 1.79863 13.572173.13113 16.252371-1.93864-.707696-.91409-1.916671-1.91665-1.916671-1.91665s3.140362.87264 4.24616 2.30001c1.102637 1.42324.409436 2.30016.120844 4.12124-.642413-1.59946-1.841501-2.1993-2.003838-2.83478-2.410358 3.33197-8.415566 3.19357-16.698866.26882z" fill="#fff" fill-rule="evenodd"/><g transform="matrix(-.15326305 -.52024985 .52024985 -.15326305 34.731331 266.25769)"><path d="m-30.350079 30.578625 4.621089 4.434412c10.552901-8.323433 21.6891647-26.1170333 21.6891647-26.1170333 2.5066746-2.9145428-.1054928-4.836911-2.6923678-3.0695011 0 0-16.4003359 13.1913574-23.6178859 24.7521224z" fill="#d17716" stroke="#fff" stroke-linecap="round" stroke-width="0"/><path d="m-45.341208 42.769835c10.443958 0 18.370039 1.24373 19.870605-6.354738 1.209249-6.123314-7.210534-9.057368-11.38287-3.590861-4.019277 5.265971-8.487735 9.945599-8.487735 9.945599z" fill="#4b4b4b"/></g></g><path d="m2.1167106.264567v3.703984h.768392c.742834 0 .81903-.07624.81903-.820581v-1.031411-1.031412c0-.744342-.0762-.82058-.81903-.82058z" fill="#fff" opacity=".2"/><path d="m.52928856 2.116559v1.031411c-.0037.744334.0762.820581.81903104.820581h1.536783c.742834 0 .81903-.07624.81903-.820581v-1.031411z" fill="#fff" opacity=".2"/><path clip-path="url(#b)" d="m325.09646 237c-2.80769 0-3.10979.28839-3.09603 3.10176v3.89824 3.89824c-.0138 2.81337.28834 3.10176 3.09603 3.10176h5.8075c2.8077 0 3.09604-.28835 3.09604-3.10176v-3.89824-3.89824c0-2.8134-.28835-3.10176-3.09604-3.10176z" fill="none" opacity=".4" stroke="url(#a)" stroke-width="2" transform="matrix(.26457031 0 0 .26457031 -84.662351 -62.438598)"/></svg>
